dist/img/icomoon/shopping.svg

<svg width="22" height="22" viewBox="0 0 22 22" fill="none" xmlns="http://www.w3.org/2000/svg">
<path fill-rule="evenodd" clip-rule="evenodd" d="M8.10276 2.24748L5.65742 6.1628L4.01329 8.94911H3.66732C2.6548 8.94911 1.83398 9.78613 1.83398 10.8186V11.7534C1.83398 12.3262 2.09144 12.8665 2.53095 13.2205C2.53649 13.2256 2.54722 13.2357 2.56193 13.2507C2.60567 13.2953 2.6777 13.3763 2.753 13.4915C2.8989 13.7147 3.05621 14.061 3.05621 14.5577C3.05621 15.0544 2.8989 15.4008 2.753 15.6239C2.6777 15.7391 2.60567 15.8202 2.56193 15.8648C2.54722 15.8798 2.53649 15.8899 2.53095 15.8949C2.09144 16.2489 1.83398 16.7892 1.83398 17.362V18.2968C1.83398 19.3293 2.6548 20.1663 3.66732 20.1663H18.334C19.3465 20.1663 20.1673 19.3293 20.1673 18.2968V17.362C20.1673 16.7892 19.9099 16.2489 19.4703 15.8949C19.4648 15.8899 19.4541 15.8798 19.4394 15.8648C19.3956 15.8202 19.3236 15.7391 19.2483 15.6239C19.1024 15.4008 18.9451 15.0544 18.9451 14.5577C18.9451 14.061 19.1024 13.7147 19.2483 13.4915C19.3236 13.3763 19.3956 13.2953 19.4394 13.2507C19.4541 13.2357 19.4648 13.2256 19.4703 13.2205C19.9099 12.8665 20.1673 12.3262 20.1673 11.7534V10.8186C20.1673 9.78613 19.3465 8.94911 18.334 8.94911H16.9403L17.2405 8.49226C17.5224 8.0634 17.4099 7.48275 16.9894 7.19534L15.4664 6.15454C15.2108 5.97988 14.8864 5.94763 14.6026 6.0686L14.5944 6.07194C14.5848 6.07583 14.5682 6.08241 14.5455 6.09108C14.4998 6.10846 14.4296 6.13396 14.3402 6.1628C14.1596 6.22107 13.9101 6.28997 13.632 6.33504C13.0316 6.43233 12.5032 6.3861 12.1705 6.15273C11.8247 5.91017 11.58 5.41424 11.4378 4.81471C11.3716 4.53569 11.3376 4.27594 11.3204 4.0855C11.3119 3.99118 11.3077 3.91615 11.3057 3.86707C11.3047 3.84259 11.3042 3.82474 11.304 3.81438L11.3039 3.80574C11.3029 3.49506 11.1506 3.20514 10.8975 3.03215L9.37456 1.99136C8.95401 1.70395 8.38461 1.81862 8.10276 2.24748ZM14.7333 8.94911L15.2072 8.22798L14.8251 7.96683C14.5889 8.04032 14.275 8.12385 13.9197 8.18142C13.1824 8.30089 12.0582 8.34303 11.1315 7.69307C10.218 7.0523 9.83069 5.99112 9.65588 5.25436C9.57196 4.90066 9.52649 4.57665 9.50162 4.32873L9.1154 4.06479L6.0568 8.94911H14.7333ZM4.41911 12.6882C4.07473 12.065 3.66732 11.7534 3.66732 11.7534V10.8186H4.35505H5.35068H5.50065H12.834V18.2968H5.50065H5.35068H4.35505H3.66732V17.362C3.66732 17.362 4.07473 17.0504 4.41911 16.4273C4.67121 15.9711 4.88954 15.3479 4.88954 14.5577C4.88954 13.7676 4.67121 13.1444 4.41911 12.6882ZM16.5007 18.2968H14.6673V10.8186H16.5007H16.6506H17.6463H18.334V11.7534C18.334 11.7534 17.9266 12.065 17.5822 12.6882C17.3301 13.1444 17.1118 13.7676 17.1118 14.5577C17.1118 15.3479 17.3301 15.9711 17.5822 16.4273C17.9266 17.0504 18.334 17.362 18.334 17.362V18.2968H17.6463H16.6506H16.5007Z" fill="#82879E"/>
</svg>

<svg xmlns="http://www.w3.org/2000/svg" viewBox="0 0 22 22"><defs><style>.cls-1,.cls-2{fill:#82879e;}.cls-1{opacity:0;}.cls-2{fill-rule:evenodd;}</style></defs><g id="Layer_2" data-name="Layer 2"><g id="Layer_1-2" data-name="Layer 1"><rect class="cls-1" width="22" height="22"/><path class="cls-2" d="M19.44,13.25l0,0a1.87,1.87,0,0,0,.7-1.47v-.93A1.85,1.85,0,0,0,18.33,9H16.94l.3-.46A.94.94,0,0,0,17,7.2l-1.52-1a.93.93,0,0,0-.87-.08h0l0,0-.21.07a5.18,5.18,0,0,1-.71.18,2,2,0,0,1-1.46-.19,2.22,2.22,0,0,1-.73-1.34,4.88,4.88,0,0,1-.12-.72,2,2,0,0,1,0-.22.18.18,0,0,1,0-.06A1,1,0,0,0,10.9,3L9.37,2a.9.9,0,0,0-1.27.26L5.66,6.16,4,9H3.67a1.85,1.85,0,0,0-1.84,1.87v.93a1.87,1.87,0,0,0,.7,1.47l0,0a1.42,1.42,0,0,1,.19.24,2,2,0,0,1,0,2.13.89.89,0,0,1-.19.24s0,0,0,0a1.9,1.9,0,0,0-.7,1.47v.94a1.85,1.85,0,0,0,1.84,1.87H18.33a1.85,1.85,0,0,0,1.84-1.87v-.94a1.9,1.9,0,0,0-.7-1.47s0,0,0,0a1.15,1.15,0,0,1-.19-.24,2,2,0,0,1,0-2.13A2.22,2.22,0,0,1,19.44,13.25ZM9.12,4.06l.38.27a6.88,6.88,0,0,0,.16.92,4.05,4.05,0,0,0,1.47,2.44,3.8,3.8,0,0,0,2.79.49A8.38,8.38,0,0,0,14.83,8l.38.26L14.73,9H6.06ZM12.83,18.3H3.67v-.94a3.32,3.32,0,0,0,.75-.93,3.86,3.86,0,0,0,.47-1.87,3.83,3.83,0,0,0-.47-1.87,3.28,3.28,0,0,0-.75-.94v-.93h9.16Zm5.5-6.55a3.28,3.28,0,0,0-.75.94,4,4,0,0,0,0,3.74,3.32,3.32,0,0,0,.75.93v.94H14.67V10.82h3.66Z"/></g></g></svg>
